!!!COM: Music21
!!!OTL: Jota de Lugo
!!!OMV: pezas_jotas_jota-de-lugo_jota-de-lugo-partitura.musicxml
**kern
*I"Bagpipes
*I'Bag
*clefG^2
*k[]
*M3/4
=1
!LO:TX:a:t=Prestissimo
*MM220
!LO:TX:a:t=[quarter]=220
4r
8ccL
8ddJ
8eeL
8ffJ
=||
4gg
4cc
4ee
=
4gg
8ccL
8ddJ
8eeL
8ffJ
=
4gg
4cc
4ee
=
4dd
8bL
8ccJ
8ddL
8eeJ
=
4ff
4b
4dd
=
4ff
8bL
8ccJ
8ddL
8eeJ
=
4ff
4b
4dd
!!linebreak:original
=
4cc
8ccL
8ddJ
8eeL
8ffJ
=||
4gg
4cc
4ee
=
4gg
8ccL
8ddJ
8eeL
8ffJ
=
4gg
4cc
4ee
=
4dd
8bL
8ccJ
8ddL
8eeJ
=
4ff
4b
4dd
=
4ff
8bL
8ccJ
8ddL
8eeJ
=
8ggL
8aaJ
8ggL
8ffJ
8eeL
8ddJ
!!linebreak:original
=
2cc
4cc
=
4cc
4r
4gg
=||
4aa
4gg
4ff
=
2ee
4gg
=
4gg
4ff
4ee
=
2dd
4ff
=
4bb
4aa
4gg
=
2ff
4aa
=
2gg
4ff
!!linebreak:original
=
2ee
4gg
=
4aa
4gg
4ff
=
2ee
4gg
=
4gg
4ff
4ee
=
2dd
4ff
=
4bb
4aa
4gg
=
2ff
4aa
=
8ggL
8aaJ
8ggL
8ffJ
8eeL
8ddJ
=||
[2.cc
=
4cc]
8ccL
8ddJ
8eeL
8ffJ
=||
[2.cc
!!linebreak:original
=
4cc]
2r
==
*-
